icons/server-divided.svg

<svg width="24" height="24" viewBox="0 0 24 24" fill="none" xmlns="http://www.w3.org/2000/svg">
<path fill-rule="evenodd" clip-rule="evenodd" d="M9 3.75C6.11421 3.75 3.75 6.11421 3.75 9V15C3.75 17.8858 6.11421 20.25 9 20.25H15C17.8858 20.25 20.25 17.8858 20.25 15V9C20.25 6.11421 17.8858 3.75 15 3.75H9ZM2.25 9C2.25 5.28579 5.28579 2.25 9 2.25H15C18.7142 2.25 21.75 5.28579 21.75 9V15C21.75 18.7142 18.7142 21.75 15 21.75H9C5.28579 21.75 2.25 18.7142 2.25 15V9Z" fill="black"/>
<path d="M6.5 9.1C6.2 9.1 6 9 5.8 8.8C5.7 8.7 5.7 8.6 5.6 8.4C5.6 8.3 5.5 8.1 5.5 8C5.5 7.9 5.5 7.7 5.6 7.6C5.7 7.5 5.7 7.4 5.8 7.3C6.2 6.9 6.8 6.9 7.2 7.3C7.3 7.4 7.4 7.5 7.4 7.6C7.5 7.7 7.5 7.9 7.5 8C7.5 8.3 7.4 8.5 7.2 8.7C7.1 9 6.8 9.1 6.5 9.1Z" fill="black"/>
<path d="M10.3 9.09998C10 9.09998 9.80005 8.99998 9.60005 8.79998C9.40005 8.59998 9.30005 8.29998 9.30005 8.09998C9.30005 7.79998 9.40005 7.59998 9.60005 7.39998C10 6.99998 10.6 6.99998 11 7.39998C11.2 7.49998 11.3 7.79998 11.3 8.09998C11.3 8.39998 11.2 8.59998 11 8.79998C10.8 8.99998 10.5 9.09998 10.3 9.09998Z" fill="black"/>
<path fill-rule="evenodd" clip-rule="evenodd" d="M12.95 8.09998C12.95 7.68576 13.2857 7.34998 13.7 7.34998H18.4C18.8142 7.34998 19.15 7.68576 19.15 8.09998C19.15 8.51419 18.8142 8.84998 18.4 8.84998H13.7C13.2857 8.84998 12.95 8.51419 12.95 8.09998Z" fill="black"/>
<path d="M6.5 17.3C6.2 17.3 6 17.2 5.8 17C5.7 16.9 5.6 16.8 5.6 16.7C5.6 16.6 5.5 16.4 5.5 16.3C5.5 16.2 5.5 16 5.6 15.9C5.7 15.8 5.7 15.7 5.8 15.6C6.2 15.2 6.9 15.2 7.2 15.6C7.3 15.7 7.4 15.8 7.4 15.9C7.5 16 7.5 16.2 7.5 16.3C7.5 16.6 7.4 16.8 7.2 17C7.1 17.2 6.8 17.3 6.5 17.3Z" fill="black"/>
<path d="M10.3 17.3C10 17.3 9.80005 17.2 9.60005 17C9.40005 16.8 9.30005 16.6 9.30005 16.3C9.30005 16 9.40005 15.8 9.60005 15.6C10 15.2 10.6 15.2 11 15.6C11.2 15.8 11.3 16 11.3 16.3C11.3 16.6 11.2 16.8 11 17C10.8 17.2 10.5 17.3 10.3 17.3Z" fill="black"/>
<path fill-rule="evenodd" clip-rule="evenodd" d="M12.95 16.3C12.95 15.8858 13.2857 15.55 13.7 15.55H18.4C18.8142 15.55 19.15 15.8858 19.15 16.3C19.15 16.7143 18.8142 17.05 18.4 17.05H13.7C13.2857 17.05 12.95 16.7143 12.95 16.3Z" fill="black"/>
<path fill-rule="evenodd" clip-rule="evenodd" d="M2.25 12C2.25 11.5858 2.58579 11.25 3 11.25H21C21.4142 11.25 21.75 11.5858 21.75 12C21.75 12.4142 21.4142 12.75 21 12.75H3C2.58579 12.75 2.25 12.4142 2.25 12Z" fill="black"/>
</svg>

<svg xmlns="http://www.w3.org/2000/svg" fill="none" viewBox="0 0 24 24">
  <path fill="#000" fill-rule="evenodd" d="M9 3.75C6.114 3.75 3.75 6.114 3.75 9v6c0 2.886 2.364 5.25 5.25 5.25h6c2.886 0 5.25-2.364 5.25-5.25V9c0-2.886-2.364-5.25-5.25-5.25H9ZM2.25 9c0-3.714 3.036-6.75 6.75-6.75h6c3.714 0 6.75 3.036 6.75 6.75v6c0 3.714-3.036 6.75-6.75 6.75H9c-3.714 0-6.75-3.036-6.75-6.75V9Z" clip-rule="evenodd"/>
  <path fill="#000" d="M6.5 9.1c-.3 0-.5-.1-.7-.3-.1-.1-.1-.2-.2-.4 0-.1-.1-.3-.1-.4 0-.1 0-.3.1-.4.1-.1.1-.2.2-.3.4-.4 1-.4 1.4 0 .1.1.2.2.2.3.1.1.1.3.1.4 0 .3-.1.5-.3.7-.1.3-.4.4-.7.4Zm3.8 0c-.3 0-.5-.1-.7-.3-.2-.2-.3-.5-.3-.7 0-.3.1-.5.3-.7.4-.4 1-.4 1.4 0 .2.1.3.4.3.7 0 .3-.1.5-.3.7-.2.2-.5.3-.7.3Z"/>
  <path fill="#000" fill-rule="evenodd" d="M12.95 8.1a.75.75 0 0 1 .75-.75h4.7a.75.75 0 0 1 0 1.5h-4.7a.75.75 0 0 1-.75-.75Z" clip-rule="evenodd"/>
  <path fill="#000" d="M6.5 17.3c-.3 0-.5-.1-.7-.3-.1-.1-.2-.2-.2-.3 0-.1-.1-.3-.1-.4 0-.1 0-.3.1-.4.1-.1.1-.2.2-.3.4-.4 1.1-.4 1.4 0 .1.1.2.2.2.3.1.1.1.3.1.4 0 .3-.1.5-.3.7-.1.2-.4.3-.7.3Zm3.8 0c-.3 0-.5-.1-.7-.3-.2-.2-.3-.4-.3-.7 0-.3.1-.5.3-.7.4-.4 1-.4 1.4 0 .2.2.3.4.3.7 0 .3-.1.5-.3.7-.2.2-.5.3-.7.3Z"/>
  <path fill="#000" fill-rule="evenodd" d="M12.95 16.3a.75.75 0 0 1 .75-.75h4.7a.75.75 0 0 1 0 1.5h-4.7a.75.75 0 0 1-.75-.75ZM2.25 12a.75.75 0 0 1 .75-.75h18a.75.75 0 0 1 0 1.5H3a.75.75 0 0 1-.75-.75Z" clip-rule="evenodd"/>
</svg>
